X: 131545
T: Miss Kelly's Favorite
T: Rogha In\'ion U\'i Cheallaigh
S: B.Breathnach: "Ceol Rince na hEireann" II/235
Z: B.Black
L: 1/8
M: 4/4
R: reel
K: Edor
E2 BE FEFD|EBBE FDDF|E2 BE (3FED FA|BcdB AFDF|
E2 BE (3FED FD|EBBE FDDF|E2 BE (3FED FA|BcdB AFD ||
d|Beeg fded|Beef afdA|Beef gfed|BB/A/Bc BAFA|
Beeg fded|Beef gfef|gagf efge|e2 dB AGFD ||
